X:27
T:RVW2/2/27 Poacher's Song
C:"Sung in the 'Bell'" WWillingale Doe, Essex, 14 April 1904
L:1/8
Q:1/4=80
M:5/8
I:linebreak $
K:G
"^(Editorial suggestion)  " D | B B B A G |[M:6/8] B G (E D) z D |[M:5/8] c c (B A) G | 
w: When|I was forc- ï¿½d to|leave my home * O|was- n't it * pro-|
(B/c/) d2 z d |$ e d B A G |[M:6/8] B G (E D) z D |[M:5/8] c c (B A) G | AG z z |] 
w: vo- * king I|kept two dogs and a|fer- ret too * I|kept them for * my|spor- ting.|



